X:248
T:The Ballyshannon                                                                                  
M:4/4                                                                                               
L:1/8                                                                                               
K:D                                                                                                 
D2 FE FDDF|AdBd AFDF|G2 BG AFED|B,EED EFDB, :|                                                      
D2 fe dBBd|AFFE DEFA|Beed efde|fdef edBd|                                                           
A2 fe dBBd|AFFE DEFA|B2 dB AFED|B,EED EFDB,|>|
